assets/images/misc/open-quote-inverse.svg

<?xml version="1.0" encoding="UTF-8" standalone="no"?>
<svg width="22px" height="16px" viewBox="0 0 22 16" version="1.1" xmlns="http://www.w3.org/2000/svg" xmlns:xlink="http://www.w3.org/1999/xlink" xmlns:sketch="http://www.bohemiancoding.com/sketch/ns">
    <!-- Generator: Sketch 3.4.4 (17249) - http://www.bohemiancoding.com/sketch -->
    <title>Untitled</title>
    <desc>Created with Sketch.</desc>
    <defs></defs>
    <g id="Page-1" stroke="none" stroke-width="1" fill="none" fill-rule="evenodd" sketch:type="MSPage">
        <path d="M21.4200001,1.84604652 C20.5018559,2.31488607 19.6472133,2.78860227 18.8560466,3.26720931 C18.0648798,3.74581636 17.3860494,4.21953255 16.8195349,4.68837211 C16.1553456,5.25488657 15.6083743,5.86046191 15.1786047,6.5051163 C14.7488351,7.14977069 14.377676,7.97999495 14.0651163,8.99581399 L15.3251163,8.99581399 C16.5558202,8.99581399 17.4397648,9.29860166 17.9769768,9.90418608 C18.5141888,10.5097705 18.7827908,11.1837173 18.7827908,11.9260466 C18.7827908,12.8637257 18.421399,13.7574377 17.6986047,14.6072094 C16.9758104,15.456981 15.9893086,15.8818605 14.7390698,15.8818605 C13.4106911,15.8818605 12.429073,15.5107014 11.7941861,14.7683721 C11.1592992,14.0260428 10.8418605,13.0493084 10.8418605,11.8381396 C10.8418605,10.2558061 11.1837176,8.82000648 11.8674419,7.5306977 C12.5511663,6.24138892 13.4106925,5.08884231 14.4460466,4.07302327 C15.4618656,3.0962742 16.5216224,2.28558463 17.6253489,1.64093024 C18.7290754,0.99627585 19.7009261,0.449304574 20.5409303,0 L21.4200001,1.84604652 Z M10.5781396,1.84604652 C9.65999544,2.31488607 8.80535282,2.78860227 8.01418608,3.26720931 C7.22301933,3.74581636 6.5441889,4.21953255 5.97767444,4.68837211 C5.31348507,5.25488657 4.76651379,5.86046191 4.3367442,6.5051163 C3.90697461,7.14977069 3.53581553,7.97999495 3.22325583,8.99581399 L4.48325583,8.99581399 C5.71395966,8.99581399 6.59790431,9.29860166 7.1351163,9.90418608 C7.67232829,10.5097705 7.94093026,11.1837173 7.94093026,11.9260466 C7.94093026,12.8637257 7.57953852,13.7574377 6.85674421,14.6072094 C6.1339499,15.456981 5.14744813,15.8818605 3.89720932,15.8818605 C2.56883058,15.8818605 1.58721248,15.5107014 0.952325585,14.7683721 C0.317438687,14.0260428 0,13.0493084 0,11.8381396 C0,10.2558061 0.341857048,8.82000648 1.0255814,7.5306977 C1.70930575,6.24138892 2.56883204,5.08884231 3.60418606,4.07302327 C4.6200051,3.0962742 5.67976194,2.28558463 6.7834884,1.64093024 C7.88721485,0.99627585 8.8590656,0.449304574 9.6990698,0 L10.5781396,1.84604652 Z" id="“" fill="#FFFFFF" sketch:type="MSShapeGroup"></path>
    </g>
</svg>

<svg width="22" height="16" viewBox="0 0 22 16" xmlns="http://www.w3.org/2000/svg"><title>Untitled</title><path d="M21.42 1.846c-.918.47-1.773.943-2.564 1.42-.79.48-1.47.954-2.036 1.422a8.86 8.86 0 0 0-1.64 1.817c-.43.645-.802 1.475-1.115 2.49h1.26c1.23 0 2.115.304 2.652.91.537.605.806 1.28.806 2.02 0 .94-.362 1.832-1.084 2.682-.724.85-1.71 1.275-2.96 1.275-1.33 0-2.31-.37-2.946-1.114-.635-.742-.952-1.72-.952-2.93 0-1.582.342-3.018 1.025-4.307a14.008 14.008 0 0 1 2.58-3.457 16.888 16.888 0 0 1 3.178-2.432A90.765 90.765 0 0 1 20.54 0l.88 1.846zm-10.842 0c-.918.47-1.773.943-2.564 1.42-.79.48-1.47.954-2.036 1.422a8.86 8.86 0 0 0-1.64 1.817c-.43.645-.802 1.475-1.115 2.49h1.26c1.23 0 2.115.304 2.652.91.537.605.806 1.28.806 2.02 0 .94-.36 1.832-1.083 2.682-.723.85-1.71 1.275-2.96 1.275-1.328 0-2.31-.37-2.945-1.114-.635-.742-.952-1.72-.952-2.93C0 10.256.342 8.82 1.026 7.53a14.008 14.008 0 0 1 2.578-3.457 16.888 16.888 0 0 1 3.18-2.432A90.765 90.765 0 0 1 9.698 0l.878 1.846z" fill="#FFF" fill-rule="evenodd"/></svg>
